papirus/16x16/apps/devassistant.svg

<svg height="16" viewBox="0 0 16 16" width="16" xmlns="http://www.w3.org/2000/svg"><path d="m16 15v-13c0-1-1-1-1-1h-15zm-3-6.61133l-5.015625-4.38867h5.015625z" fill="#3f51b5"/><path d="m0 1v13c0 1 1 1 1 1h15zm3 6.61133l5.015625 4.38867h-5.015625z" fill="#03a9f4"/></svg>

<?xml version="1.0" encoding="UTF-8" standalone="no"?>
<!-- Created with Inkscape (http://www.inkscape.org/) -->

<svg
   xmlns:dc="http://purl.org/dc/elements/1.1/"
   xmlns:cc="http://creativecommons.org/ns#"
   xmlns:rdf="http://www.w3.org/1999/02/22-rdf-syntax-ns#"
   xmlns:svg="http://www.w3.org/2000/svg"
   xmlns="http://www.w3.org/2000/svg"
   xmlns:sodipodi="http://sodipodi.sourceforge.net/DTD/sodipodi-0.dtd"
   xmlns:inkscape="http://www.inkscape.org/namespaces/inkscape"
   id="svg4398"
   height="16"
   width="16"
   version="1.1"
   viewBox="0 0 16 16"
   inkscape:version="0.91 r13725"
   sodipodi:docname="devassistant.svg">
  <defs
     id="defs14" />
  <sodipodi:namedview
     pagecolor="#ffffff"
     bordercolor="#666666"
     borderopacity="1"
     objecttolerance="10"
     gridtolerance="10"
     guidetolerance="10"
     inkscape:pageopacity="0"
     inkscape:pageshadow="2"
     inkscape:window-width="1600"
     inkscape:window-height="847"
     id="namedview12"
     showgrid="false"
     inkscape:zoom="7.375"
     inkscape:cx="16"
     inkscape:cy="16"
     inkscape:window-x="0"
     inkscape:window-y="0"
     inkscape:window-maximized="1"
     inkscape:current-layer="svg4398" />
  <metadata
     id="metadata4403">
    <rdf:RDF>
      <cc:Work
         rdf:about="">
        <dc:format>image/svg+xml</dc:format>
        <dc:type
           rdf:resource="http://purl.org/dc/dcmitype/StillImage" />
        <dc:title></dc:title>
      </cc:Work>
    </rdf:RDF>
  </metadata>
  <path
     id="path4506"
     d="M 16,15 16,2 C 16,1 15,1 15,1 L 0,1 16,15 Z M 13,8.38867 7.984375,4 13,4 13,8.38867 Z"
     style="display:inline;fill:#3f51b5;fill-opacity:1;stroke:none;enable-background:new"
     inkscape:connector-curvature="0" />
  <path
     style="display:inline;fill:#03a9f4;fill-opacity:1;stroke:none;enable-background:new"
     d="m 0,1 0,13 c 0,1 1,1 1,1 L 16,15 0,1 Z M 3,7.61133 8.015625,12 3,12 3,7.61133 Z"
     id="rect4265"
     inkscape:connector-curvature="0" />
</svg>
